public/avatar/hat/116.svg

<svg xmlns:xlink="http://www.w3.org/1999/xlink" height="92.9" width="100.7" xmlns="http://www.w3.org/2000/svg"><use height="32.35" transform="translate(20.4 33.75)" width="35.5" xlink:href="#a"/><defs><g id="a" fill-rule="evenodd"><path d="m-15.75 11.15-2.5-.05q1.9-2.85 3.6-3.95l2.75-1.25 2.05 1.7-2.55 2.5q-.7 1.15-1.25 3.9l-3.85.85q0-1.5.4-2.25l1.35-1.45" fill="#060100" transform="translate(18.25 16)"/><path d="m-10.55 6.2-.1.45 1 .6L-11.9 10l-1.65 3.3-3.35.8q2.1-3.45 2.85-3.75l-3.35.35 2.85-2.65q1.15-.8 4-1.85" fill="#060100" transform="translate(18.25 16)"/><path d="m-13.75 11.1 1.4-1.15-2.5-.05q-.05-.6 1.65-1.9l1.1-.8q.55-.05 1.5.6v.4l-1.35 1.8-.95 2.35-.85.4-.85-.1q-.1-.5.85-1.55" fill="#201a19" transform="translate(18.25 16)"/><path d="M6-8.4 4.2-6.25-5.3-5.1q-.1-.75.65-1.5 2-1.85 2.05-2.9.05-.9-.7-1.5-.95-.65-1.05.1l.15.9q.1.55-.35 1.2l-1.25.05q-.9-.45-1.35-1.5-1.2-2.55 1-4.3 2.7-2.25 5.9-1Q2.6-14.4 6-8.4" transform="translate(18.25 16)"/><path d="m.15 8.65 6.8-.7 9.05 4.3q-2.75 1-4 .95l-2.65-.85.75 3.75-3.5-1-2.35-1.85.25 3.1q-2.75-.75-5-2.7-.55-.45-1-1.95l-.35-1.35 2-1.7" fill="#060100" transform="translate(18.25 16)"/><path d="M12.25 13 9.9 9.75q-.05-.25 1.25-5l3.75 3.1q1 1.05 2.35 4.75-.9.8-2.35.8l-2.65-.4" fill="#060100" transform="translate(18.25 16)"/><path d="M10.6 4.95q2.05 1.1 3.55 3.25.95 1.25 2.3 4.25-3.8.65-5.5-.1l-2.4-1.45q.8 2.05.7 4.2-1.9.05-5.6-3.05Q4 13.2 4 15.6q-1.45.05-3.8-2.9-1.35-1.5-1.35-3.3L.3 6.45Q.5 4.8 3.95 3.7l4.5.25 2.15 1" fill="#060100" transform="translate(18.25 16)"/><path d="M13.8 8.35q.5 1.25-.8 1.5l-2.35.05H8.1q-.6.05-.75.4l-.5.65q-.65.5-4 0-.3 1.1-1.7 1.05-1.85-.1-1.9-1.25l2.6-1.85 2.1-.75L9.7 6.5q3-1.05 4.1 1.85" fill="#201a19" transform="translate(18.25 16)"/><path d="M-4.65-6.6q1.6-1.55 5.5-1.55l3.1-.4L6-8.4 8.25-3l.3-.4q.45-.45 1.3-.45.8 0 1.5 3.95l1.4 5.3q.55 1.75-.8 2.45L7.7 8-.5 3.2l-6.55 4.95q-3.95-.05-4.7-.75-.7-.65-.1-2.95l1.2-4.35q.5-3.85 1.9-3.85 1.3 0 1.65 1.1.2-1.75 2.45-3.95" transform="translate(18.25 16)"/><path d="M11.95 7.85q-6.45 3-11.45 3-3.1 0-7.5-1.5l-3.75-1.5L-9.4 6.7.7 8.25 10.85 6.6l1.1 1.25" fill="#2e0402" transform="translate(18.25 16)"/><path d="M2.1-12.2q2.8 3.3 5.5 9.3l4.2 10.05q-6 2.3-11 2.3H.4q-3.15 0-7.35-1.15l-3.65-1.15q.25.1 4.7-10.8l1.95-2q2.55-3.1 2.15-4.5-.25-.95-1.15-1.6l-1.8-.15q-.45.3-.2 1.55.25 1.1-.2 1.1-1.2 0-1.6-1.3-.35-1.15 0-2.05 1.1-2.6 3.9-2.8 2.25-.15 4.95 3.2" fill="#d73424" transform="translate(18.25 16)"/><path d="m5-8.55 3.6 7.3 1.5 7.7q-1.25 1.7-3 2.05l-5.5.95.55-1.35Q2.7-4.4 2.2-7.3l-2.75-7.45q3.4 2.1 5.55 6.2" fill="#ab291c" transform="translate(18.25 16)"/><path d="M10.1 3.1q-5.15 2-10.4 2-3.3 0-5.85-.75L-7.6 3.8l-.45.05V3.6l.45.2L.1 2.4l10 .7" fill="#563a2c" transform="translate(18.25 16)"/><path d="m9.5-.6.5 3.15Q6.35 4.5-.5 4.5q-4.3 0-6.8-1.4L-9 1.7l1.1-3.6 2.4 1.1Q-2.65.25-.25.25q2.7 0 5.75-.9 2.85-.8 3.15-1.5.3-.55.6.35L9.5-.6" transform="translate(18.25 16)"/><path d="m-8.25-1.85 2.55 1q3.05 1 5.8 1 4.35 0 5.35-.9-2 2-5.35 1.85Q-2 1-5.35-.45l-2.9-1.4" fill="#bc9d85" transform="translate(18.25 16)"/><path d="M2.9 9.25q2.25-.85 3.2-2.9L7.8.4q1.25-4.25 2.3-3.45.3.25 1.65 7.2.75 1.85.05 3l-8.9 2.1m-5.15 0-8.9-2.1q-.65-1.15.1-3 1.55-6.8 1.9-7.05Q-7.5-4.25-5.4 6.35q.9 2.05 3.15 2.9" fill="#761c13" transform="translate(18.25 16)"/><path d="M3 .5.55.25l-2.6.4q-.4.25-.4 1.9-.05 1.7.45 1.8l4.85-.15q.25-.25.3-1.85Q3.25.8 3 .5M0-2.25q3.6-.15 4.85.55.7.4.6 3.7-.1 3.05-.55 4.05-.3.75-4 .75l-4.8-.5q-1.1-.45-.95-3.9.1-3.3.7-3.9.65-.6 4.15-.75" fill="#262a2e" transform="translate(18.25 16)"/><path d="m.5-1.4 3.85.35q.35.35.3 3.25 0 2.9-.45 3.45l-3.65.5-4-.2q-.75-.2-.75-3.4 0-3.15.6-3.55l4.1-.4M3.25-.15.2-.45l-2.95.4q-.6.3-.4 2.6.15 2.3.65 2.4l2.95.1 2.7-.2q.35-.35.5-2.4.2-2.25-.4-2.6" fill="#ffbf3b" transform="translate(18.25 16)"/><path d="m3.8-.85.1-.25.45.15.35 2.35q.3 3.4-.5 4.25-.6.65-4.85.5Q3.1 5.7 3.6 5.2q.4-.4.5-2.95l-.3-3.1" fill="#c86426" transform="translate(18.25 16)"/><path d="m4.25-1.1.25.55-4.05-.4-4.4.55.35-.6.45-.2 2.65-.5 4.75.6M.15 5.4l-2.7-.35 1.35-.2L2.4 5l.65-.05-2.9.45" fill="#fff" transform="translate(18.25 16)"/><path d="m2 1.35 2-.05q.7.35.4 2.1l-3.9.25q-.65 0-.75-.8-.1-.75.2-1.15L2 1.35" fill="#262a2e" transform="translate(18.25 16)"/><path d="m.35 2.15 3.95-.2Q4.3 3 4.1 3H.5q-.15 0-.15-.85" fill="#ffbf3b" transform="translate(18.25 16)"/><path d="m-2.1-.3-1.05 1.75.25 3.3.4.2-.7.25-.45-3.9q0-.85.4-1.3l.35-.25.8-.05" fill="#c86426" transform="translate(18.25 16)"/><path d="M-5-9.3q-1.6-.8-.6-2.7.55-.95 1.65-1.15 1.2-.25 1.85.75.85 1.35.55 3.3l-.5-1.75q-.7-1.45-1.9-1.25-1.15.15-1.15 1.05L-5-9.3" fill="#761c13" transform="translate(18.25 16)"/><path d="m10.45 9.35 1.9-1.75q2.1 1 3.1 4.15-2.8-1.95-5-2.4" fill="#201a19" transform="translate(18.25 16)"/><path d="m13.1 7.85 2.9 4.4q-2.15-.9-2.9-1.9l-.9-1.4.9-1.1m-5 2.05 1 3.45.15 1.75-1.3-2.4.15-2.8m-4.65 1.3.25 3.5-1.75-3.35 1.5-.15M-12.8 7.1l.65.85-1.4 1-3.1 1.25 1.75-2.1 2.1-1m-1.75 3.6.75.65-2.6 2.25.35-1.15 1.5-1.75" fill="#747474" transform="translate(18.25 16)"/></g></defs></svg>

<?xml version="1.0" encoding="UTF-8" standalone="no"?>
<svg xmlns:xlink="http://www.w3.org/1999/xlink" height="92.9px" width="100.7px" xmlns="http://www.w3.org/2000/svg">
  <g transform="matrix(1.0, 0.0, 0.0, 1.0, 38.65, 49.75)">
    <use height="32.35" transform="matrix(1.0, 0.0, 0.0, 1.0, -18.25, -16.0)" width="35.5" xlink:href="#shape0"/>
  </g>
  <defs>
    <g id="shape0" transform="matrix(1.0, 0.0, 0.0, 1.0, 18.25, 16.0)">
      <path d="M-15.75 11.15 L-18.25 11.1 Q-16.35 8.25 -14.65 7.15 L-11.9 5.9 -9.85 7.6 -12.4 10.1 Q-13.1 11.25 -13.65 14.0 L-17.5 14.85 Q-17.5 13.35 -17.1 12.6 L-15.75 11.15" fill="#060100" fill-rule="evenodd" stroke="none"/>
      <path d="M-10.55 6.2 L-10.65 6.65 -9.65 7.25 -11.9 10.0 -13.55 13.3 -16.9 14.1 Q-14.8 10.65 -14.05 10.35 L-17.4 10.7 -14.55 8.05 Q-13.4 7.25 -10.55 6.2" fill="#060100" fill-rule="evenodd" stroke="none"/>
      <path d="M-13.75 11.1 L-12.35 9.95 -14.85 9.9 Q-14.9 9.3 -13.2 8.0 L-12.1 7.2 Q-11.55 7.15 -10.6 7.8 L-10.6 8.2 -11.95 10.0 -12.9 12.35 -13.75 12.75 -14.6 12.65 Q-14.7 12.15 -13.75 11.1" fill="#201a19" fill-rule="evenodd" stroke="none"/>
      <path d="M6.0 -8.4 L4.2 -6.25 -5.3 -5.1 Q-5.4 -5.85 -4.65 -6.6 -2.65 -8.45 -2.6 -9.5 -2.55 -10.4 -3.3 -11.0 -4.25 -11.65 -4.35 -10.9 L-4.2 -10.0 Q-4.1 -9.45 -4.55 -8.8 L-5.8 -8.75 Q-6.7 -9.2 -7.15 -10.25 -8.35 -12.8 -6.15 -14.55 -3.45 -16.8 -0.25 -15.55 2.6 -14.4 6.0 -8.4" fill="#000000" fill-rule="evenodd" stroke="none"/>
      <path d="M0.15 8.65 L6.95 7.95 16.0 12.25 Q13.25 13.25 12.0 13.2 L9.35 12.35 10.1 16.1 6.6 15.1 4.25 13.25 4.5 16.35 Q1.75 15.6 -0.5 13.65 -1.05 13.2 -1.5 11.7 L-1.85 10.35 0.15 8.65" fill="#060100" fill-rule="evenodd" stroke="none"/>
      <path d="M12.25 13.0 L9.9 9.75 Q9.85 9.5 11.15 4.75 L14.9 7.85 Q15.9 8.9 17.25 12.6 16.35 13.4 14.9 13.4 L12.25 13.0" fill="#060100" fill-rule="evenodd" stroke="none"/>
      <path d="M10.6 4.95 Q12.65 6.05 14.15 8.2 15.1 9.45 16.45 12.45 12.65 13.1 10.95 12.35 L8.55 10.9 Q9.35 12.95 9.25 15.1 7.35 15.15 3.65 12.05 4.0 13.2 4.0 15.6 2.55 15.65 0.2 12.7 -1.15 11.2 -1.15 9.4 L0.3 6.45 Q0.5 4.8 3.95 3.7 L8.45 3.95 10.6 4.95" fill="#060100" fill-rule="evenodd" stroke="none"/>
      <path d="M13.8 8.35 Q14.3 9.6 13.0 9.85 L10.65 9.9 8.1 9.9 Q7.5 9.95 7.35 10.3 L6.85 10.95 Q6.2 11.45 2.85 10.95 2.55 12.05 1.15 12.0 -0.7 11.9 -0.75 10.75 L1.85 8.9 3.95 8.15 9.7 6.5 Q12.7 5.45 13.8 8.35" fill="#201a19" fill-rule="evenodd" stroke="none"/>
      <path d="M-4.65 -6.6 Q-3.05 -8.15 0.85 -8.15 L3.95 -8.55 6.0 -8.4 8.25 -3.0 8.55 -3.4 Q9.0 -3.85 9.85 -3.85 10.65 -3.85 11.35 0.1 L12.75 5.4 Q13.3 7.15 11.95 7.85 L7.7 8.0 -0.5 3.2 -7.05 8.15 Q-11.0 8.1 -11.75 7.4 -12.45 6.75 -11.85 4.45 L-10.65 0.1 Q-10.15 -3.75 -8.75 -3.75 -7.45 -3.75 -7.1 -2.65 -6.9 -4.4 -4.65 -6.6" fill="#000000" fill-rule="evenodd" stroke="none"/>
      <path d="M11.95 7.85 Q5.5 10.85 0.5 10.85 -2.6 10.85 -7.0 9.35 L-10.75 7.85 -9.4 6.7 0.7 8.25 10.85 6.6 11.95 7.85" fill="#2e0402" fill-rule="evenodd" stroke="none"/>
      <path d="M2.1 -12.2 Q4.9 -8.9 7.6 -2.9 L11.8 7.15 Q5.8 9.45 0.8 9.45 L0.4 9.45 Q-2.75 9.45 -6.95 8.3 L-10.6 7.15 Q-10.35 7.25 -5.9 -3.65 L-3.95 -5.65 Q-1.4 -8.75 -1.8 -10.15 -2.05 -11.1 -2.95 -11.75 L-4.75 -11.9 Q-5.2 -11.6 -4.95 -10.35 -4.7 -9.25 -5.15 -9.25 -6.35 -9.25 -6.75 -10.55 -7.1 -11.7 -6.75 -12.6 -5.65 -15.2 -2.85 -15.4 -0.6 -15.55 2.1 -12.2" fill="#d73424" fill-rule="evenodd" stroke="none"/>
      <path d="M5.0 -8.55 L8.6 -1.25 10.1 6.45 Q8.85 8.15 7.1 8.5 L1.6 9.45 2.15 8.1 Q2.7 -4.4 2.2 -7.3 L-0.55 -14.75 Q2.85 -12.65 5.0 -8.55" fill="#ab291c" fill-rule="evenodd" stroke="none"/>
      <path d="M10.1 3.1 Q4.95 5.1 -0.3 5.1 -3.6 5.1 -6.15 4.35 L-7.6 3.8 -8.05 3.85 -8.05 3.6 -7.6 3.8 0.1 2.4 10.1 3.1" fill="#563a2c" fill-rule="evenodd" stroke="none"/>
      <path d="M9.5 -0.6 L10.0 2.55 Q6.35 4.5 -0.5 4.5 -4.8 4.5 -7.3 3.1 L-9.0 1.7 -7.9 -1.9 -5.5 -0.8 Q-2.65 0.25 -0.25 0.25 2.45 0.25 5.5 -0.65 8.35 -1.45 8.65 -2.15 8.95 -2.7 9.25 -1.8 L9.5 -0.6" fill="#000000" fill-rule="evenodd" stroke="none"/>
      <path d="M-8.25 -1.85 L-5.7 -0.85 Q-2.65 0.15 0.1 0.15 4.45 0.15 5.45 -0.75 3.45 1.25 0.1 1.1 -2.0 1.0 -5.35 -0.45 L-8.25 -1.85" fill="#bc9d85" fill-rule="evenodd" stroke="none"/>
      <path d="M2.9 9.25 Q5.15 8.4 6.1 6.35 L7.8 0.4 Q9.05 -3.85 10.1 -3.05 10.4 -2.8 11.75 4.15 12.5 6.0 11.8 7.15 L2.9 9.25" fill="#761c13" fill-rule="evenodd" stroke="none"/>
      <path d="M-2.25 9.25 L-11.15 7.15 Q-11.8 6.0 -11.05 4.15 -9.5 -2.65 -9.15 -2.9 -7.5 -4.25 -5.4 6.35 -4.5 8.4 -2.25 9.25" fill="#761c13" fill-rule="evenodd" stroke="none"/>
      <path d="M3.0 0.5 L0.55 0.25 -2.05 0.65 Q-2.45 0.9 -2.45 2.55 -2.5 4.25 -2.0 4.35 L2.85 4.2 Q3.1 3.95 3.15 2.35 3.25 0.8 3.0 0.5 M0.0 -2.25 Q3.6 -2.4 4.85 -1.7 5.55 -1.3 5.45 2.0 5.35 5.05 4.9 6.05 4.6 6.8 0.9 6.8 L-3.9 6.3 Q-5.0 5.85 -4.85 2.4 -4.75 -0.9 -4.15 -1.5 -3.5 -2.1 0.0 -2.25" fill="#262a2e" fill-rule="evenodd" stroke="none"/>
      <path d="M0.5 -1.4 L4.35 -1.05 Q4.7 -0.7 4.65 2.2 4.65 5.1 4.2 5.65 L0.55 6.15 -3.45 5.95 Q-4.2 5.75 -4.2 2.55 -4.2 -0.6 -3.6 -1.0 L0.5 -1.4 M3.25 -0.15 L0.2 -0.45 -2.75 -0.05 Q-3.35 0.25 -3.15 2.55 -3.0 4.85 -2.5 4.95 L0.45 5.05 3.15 4.85 Q3.5 4.5 3.65 2.45 3.85 0.2 3.25 -0.15" fill="#ffbf3b" fill-rule="evenodd" stroke="none"/>
      <path d="M3.8 -0.85 L3.9 -1.1 4.35 -0.95 4.7 1.4 Q5.0 4.8 4.2 5.65 3.6 6.3 -0.65 6.15 3.1 5.7 3.6 5.2 4.0 4.8 4.1 2.25 L3.8 -0.85" fill="#c86426" fill-rule="evenodd" stroke="none"/>
      <path d="M4.25 -1.1 L4.5 -0.55 0.45 -0.95 -3.95 -0.4 -3.6 -1.0 -3.15 -1.2 -0.5 -1.7 4.25 -1.1" fill="#ffffff" fill-rule="evenodd" stroke="none"/>
      <path d="M0.15 5.4 L-2.55 5.05 -1.2 4.85 2.4 5.0 3.05 4.95 0.15 5.4" fill="#ffffff" fill-rule="evenodd" stroke="none"/>
      <path d="M2.0 1.35 L4.0 1.3 Q4.7 1.65 4.4 3.4 L0.5 3.65 Q-0.15 3.65 -0.25 2.85 -0.35 2.1 -0.05 1.7 L2.0 1.35" fill="#262a2e" fill-rule="evenodd" stroke="none"/>
      <path d="M0.35 2.15 L4.3 1.95 Q4.3 3.0 4.1 3.0 L0.5 3.0 Q0.35 3.0 0.35 2.15" fill="#ffbf3b" fill-rule="evenodd" stroke="none"/>
      <path d="M-2.1 -0.3 L-3.15 1.45 -2.9 4.75 -2.5 4.95 -3.2 5.2 -3.65 1.3 Q-3.65 0.45 -3.25 0.0 L-2.9 -0.25 -2.1 -0.3" fill="#c86426" fill-rule="evenodd" stroke="none"/>
      <path d="M-5.0 -9.3 Q-6.6 -10.1 -5.6 -12.0 -5.05 -12.95 -3.95 -13.15 -2.75 -13.4 -2.1 -12.4 -1.25 -11.05 -1.55 -9.1 L-2.05 -10.85 Q-2.75 -12.3 -3.95 -12.1 -5.1 -11.95 -5.1 -11.05 L-5.0 -9.3" fill="#761c13" fill-rule="evenodd" stroke="none"/>
      <path d="M10.45 9.35 L12.35 7.6 Q14.45 8.6 15.45 11.75 12.65 9.8 10.45 9.35" fill="#201a19" fill-rule="evenodd" stroke="none"/>
      <path d="M13.1 7.85 L16.0 12.25 Q13.85 11.35 13.1 10.35 L12.2 8.95 13.1 7.85" fill="#747474" fill-rule="evenodd" stroke="none"/>
      <path d="M8.1 9.9 L9.1 13.35 9.25 15.1 7.95 12.7 8.1 9.9" fill="#747474" fill-rule="evenodd" stroke="none"/>
      <path d="M3.45 11.2 L3.7 14.7 1.95 11.35 3.45 11.2" fill="#747474" fill-rule="evenodd" stroke="none"/>
      <path d="M-12.8 7.1 L-12.15 7.95 -13.55 8.95 -16.65 10.2 -14.9 8.1 -12.8 7.1" fill="#747474" fill-rule="evenodd" stroke="none"/>
      <path d="M-14.55 10.7 L-13.8 11.35 -16.4 13.6 -16.05 12.45 -14.55 10.7" fill="#747474" fill-rule="evenodd" stroke="none"/>
    </g>
  </defs>
</svg>
